X: 7469
T: Cnoc Na gClarac
R: slide
M: 12/8
K: Amixolydian
f2 b b2 a f2 e d2 e|f2 b b2 a fgf e3|
f2 b b2 b b2 b d'2 b|a2 f f2 a g3 f2 e:|
e2 e efe d2 f e2 d|c2 B cBA a3 a2 f|
e2 e efe d2 f e2 d|cBA BcB A3 A3:|

